X: 282
T: Whaling City Reel
C: BB 3/09
N: 232275
M: 4/4
Q: 360
K: D
A | "D"dFFF "Bm"BAFE | "D"DF F/^E/F "G"GABG | "D"FAdc "G"BGBc | "Bm"dfdB "A"A2 Bc |
"D"dF F2 "Bm"BAFE | "D"DF F/^E/F "G"GABc | "Bm"dB B2 fBAF | "A"EAGE "D"D3 :|
e | "D"fd df "Em"gebe | "Bm"fddc "G"BdgB | "D"Adcd "A"eAce | "Bm"fbaf "A7"e3g |
"D"fd df "Em"gebe | "Bm"fddc "G"Bdgb | "D"a2 fd "Em"Begf | "A"ecAc "D"d3 :|
%%%%%
